pieces/kosal/bb.svg

<svg xmlns="http://www.w3.org/2000/svg" viewBox="0 0 81 81"><style>.st0{fill:none}.st1{fill:#010101}.st2{fill:#6d6e6e}</style><path class="st0" d="M0 0h81v81H0z"/><path class="st1" d="M18.9 72h43.2l-11.8-9.5H30.7zM41 18.9c1.5 0 2.9-.5 4-1.3l2.8-5.2v-.3c0-3.7-3-6.8-6.8-6.8-3.7 0-6.8 3-6.8 6.8v.3l2.8 5.2c1.2.8 2.6 1.3 4 1.3"/><path class="st1" d="M48.4 20.4l-9.7 18.2-1.7-5.9 8.1-15.2c-1-.8-2-1.5-3-2.2H39c-10 6.6-19.1 17.5-19.1 32.2l10.9 15.2h19.4l10.9-15.2c0-11.4-5.5-20.5-12.7-27.1"/><path class="st2" d="M48.6 27.9l-7.2 13s5 1.3 7.2-1.9c2.2-3.1 1.6-10.1 0-11.1zM31.2 55.1c-1.6-13.9 1.4-28.1 7.9-34.8l-.5-.7c-7.1 6.3-14 15.6-14 26.6l6.6 8.9zM37.9 69v-5.7h-2.5L28.8 69zm4.5-61.1c-.8-.5-1.8-.6-2.7-.3-1.9.5-3 2.5-2.5 4.4 0 .1 0 .1.1.2 3 .2 5.5-2.9 5.1-4.3z"/></svg>

<svg width="81" height="81" viewBox="0 0 81 81" fill="none" xmlns="http://www.w3.org/2000/svg">
<path d="M18.9 72H62.1L50.3 62.5H30.7L18.9 72ZM41 18.9C42.5 18.9 43.9 18.4 45 17.6L47.8 12.4V12.1C47.8 8.4 44.8 5.3 41 5.3C37.3 5.3 34.2 8.3 34.2 12.1V12.4L37 17.6C38.2 18.4 39.6 18.9 41 18.9Z" fill="#010101"/>
<path d="M48.4 20.4L38.7 38.6L37 32.7L45.1 17.5C44.1 16.7 43.1 16 42.1 15.3H39C29 21.9 19.9 32.8 19.9 47.5L30.8 62.7H50.2L61.1 47.5C61.1 36.1 55.6 27 48.4 20.4" fill="#010101"/>
<path d="M48.6 27.9L41.4 40.9C41.4 40.9 46.4 42.2 48.6 39C50.8 35.9 50.2 28.9 48.6 27.9ZM31.2 55.1C29.6 41.2 32.6 27 39.1 20.3L38.6 19.6C31.5 25.9 24.6 35.2 24.6 46.2L31.2 55.1V55.1ZM37.9 69V63.3H35.4L28.8 69H37.9ZM42.4 7.9C41.6 7.4 40.6 7.3 39.7 7.6C37.8 8.1 36.7 10.1 37.2 12C37.2 12.1 37.2 12.1 37.3 12.2C40.3 12.4 42.8 9.3 42.4 7.9V7.9Z" fill="#6D6E6E"/>
</svg>
